Newaita-dark/actions/24/view-calendar-timeline.svg

<?xml version="1.0" encoding="UTF-8"?>
<svg xmlns="http://www.w3.org/2000/svg" xmlns:xlink="http://www.w3.org/1999/xlink" width="24pt" height="24pt" viewBox="0 0 24 24" version="1.1">
<defs>
<filter id="alpha" filterUnits="objectBoundingBox" x="0%" y="0%" width="100%" height="100%">
  <feColorMatrix type="matrix" in="SourceGraphic" values="0 0 0 0 1 0 0 0 0 1 0 0 0 0 1 0 0 0 1 0"/>
</filter>
<mask id="mask0">
  <g filter="url(#alpha)">
<rect x="0" y="0" width="24" height="24" style="fill:rgb(0%,0%,0%);fill-opacity:0.988235;stroke:none;"/>
  </g>
</mask>
<clipPath id="clip1">
  <rect x="0" y="0" width="24" height="24"/>
</clipPath>
<g id="surface5" clip-path="url(#clip1)">
<path style=" stroke:none;fill-rule:nonzero;fill:rgb(74.117649%,74.117649%,74.117649%);fill-opacity:1;" d="M 0.992188 6.140625 L 0.992188 21.027344 C 0.992188 22.125 1.878906 23.011719 2.976562 23.011719 L 20.839844 23.011719 C 21.9375 23.011719 22.824219 22.125 22.824219 21.027344 L 22.824219 6.140625 L 21.335938 6.140625 L 21.335938 20.527344 C 21.335938 21.078125 20.890625 21.523438 20.339844 21.523438 L 3.472656 21.523438 C 2.921875 21.523438 2.480469 21.078125 2.480469 20.527344 L 2.480469 6.140625 Z M 0.992188 6.140625 "/>
</g>
<mask id="mask1">
  <g filter="url(#alpha)">
<rect x="0" y="0" width="24" height="24" style="fill:rgb(0%,0%,0%);fill-opacity:0.988235;stroke:none;"/>
  </g>
</mask>
<clipPath id="clip2">
  <rect x="0" y="0" width="24" height="24"/>
</clipPath>
<g id="surface8" clip-path="url(#clip2)">
<path style=" stroke:none;fill-rule:nonzero;fill:rgb(61.176473%,80.000001%,39.607844%);fill-opacity:1;" d="M 2.976562 1.179688 C 1.878906 1.179688 0.992188 2.066406 0.992188 3.164062 L 0.992188 6.140625 L 22.824219 6.140625 L 22.824219 3.164062 C 22.824219 2.066406 21.9375 1.179688 20.839844 1.179688 Z M 4.464844 2.171875 C 5.289062 2.171875 5.953125 2.835938 5.953125 3.660156 C 5.953125 4.484375 5.289062 5.148438 4.464844 5.148438 C 3.640625 5.148438 2.976562 4.484375 2.976562 3.660156 C 2.976562 2.835938 3.640625 2.171875 4.464844 2.171875 Z M 19.347656 2.171875 C 20.175781 2.171875 20.839844 2.835938 20.839844 3.660156 C 20.839844 4.484375 20.175781 5.148438 19.347656 5.148438 C 18.523438 5.148438 17.859375 4.484375 17.859375 3.660156 C 17.859375 2.835938 18.523438 2.171875 19.347656 2.171875 Z M 19.347656 2.171875 "/>
</g>
</defs>
<g id="surface1">
<use xlink:href="#surface5" mask="url(#mask0)"/>
<use xlink:href="#surface8" mask="url(#mask1)"/>
<path style=" stroke:none;fill-rule:nonzero;fill:rgb(100%,43.921569%,26.274511%);fill-opacity:1;" d="M 5.953125 9.613281 L 14.882812 9.613281 C 15.707031 9.613281 16.371094 10.167969 16.371094 10.855469 C 16.371094 11.539062 15.707031 12.09375 14.882812 12.09375 L 5.953125 12.09375 C 5.132812 12.09375 4.464844 11.539062 4.464844 10.855469 C 4.464844 10.167969 5.132812 9.613281 5.953125 9.613281 Z M 5.953125 9.613281 "/>
<path style=" stroke:none;fill-rule:nonzero;fill:rgb(100%,43.921569%,26.274511%);fill-opacity:1;" d="M 8.433594 15.070312 L 17.363281 15.070312 C 18.1875 15.070312 18.851562 15.628906 18.851562 16.3125 C 18.851562 16.996094 18.1875 17.550781 17.363281 17.550781 L 8.433594 17.550781 C 7.613281 17.550781 6.945312 16.996094 6.945312 16.3125 C 6.945312 15.628906 7.613281 15.070312 8.433594 15.070312 Z M 8.433594 15.070312 "/>
</g>
</svg>

<svg xmlns="http://www.w3.org/2000/svg" xmlns:xlink="http://www.w3.org/1999/xlink" width="32" height="32" viewBox="0 0 24 24"><defs><filter id="a" filterUnits="objectBoundingBox" x="0%" y="0%" width="100%" height="100%"><feColorMatrix in="SourceGraphic" values="0 0 0 0 1 0 0 0 0 1 0 0 0 0 1 0 0 0 1 0"/></filter><mask id="e"><path fill-opacity=".988" d="M0 0h24v24H0z" filter="url(#a)"/></mask><clipPath id="b"><path d="M0 0h24v24H0z"/></clipPath><g id="d" clip-path="url(#b)"><path d="M.992 6.14v14.887c0 1.098.887 1.985 1.985 1.985H20.84a1.982 1.982 0 0 0 1.984-1.985V6.141h-1.488v14.386c0 .551-.445.996-.996.996H3.473a.992.992 0 0 1-.993-.996V6.141zm0 0" fill="#bdbdbd"/></g><mask id="g"><path fill-opacity=".988" d="M0 0h24v24H0z" filter="url(#a)"/></mask><clipPath id="c"><path d="M0 0h24v24H0z"/></clipPath><g id="f" clip-path="url(#c)"><path d="M2.977 1.18A1.982 1.982 0 0 0 .992 3.164v2.977h21.832V3.164A1.982 1.982 0 0 0 20.84 1.18zm1.488.992c.824 0 1.488.664 1.488 1.488S5.29 5.148 4.465 5.148A1.485 1.485 0 0 1 2.977 3.66c0-.824.664-1.488 1.488-1.488zm14.883 0c.828 0 1.492.664 1.492 1.488s-.664 1.488-1.492 1.488a1.485 1.485 0 0 1-1.489-1.488c0-.824.664-1.488 1.489-1.488zm0 0" fill="#9ccc65"/></g></defs><use xlink:href="#d" mask="url(#e)"/><use xlink:href="#f" mask="url(#g)"/><path d="M5.953 9.613h8.93c.824 0 1.488.555 1.488 1.242 0 .684-.664 1.239-1.488 1.239h-8.93c-.82 0-1.488-.555-1.488-1.239 0-.687.668-1.242 1.488-1.242zm0 0M8.434 15.07h8.93c.823 0 1.488.559 1.488 1.242 0 .684-.665 1.239-1.489 1.239h-8.93c-.82 0-1.488-.555-1.488-1.238 0-.684.668-1.243 1.489-1.243zm0 0" fill="#ff7043"/></svg>
